X:3
O:Macedoine
M:C|
K:C
a4 g4 | ^fagf e3 d | egfe d2 a2 |
gagf eded | egfe d2 a2 | gagf e3 d |
egfe d2 a2 | gagf eded | efed cdcB |
cBcd edef | gfed cdBc | A2 AE ABcd |
efed cdcB | cBcd edef | gfed cdBc |
|1 A2 AE A2 z2 :|2 A4 |
